svg/logo/nintendo_switch_fill.svg

<?xml version="1.0" encoding="UTF-8"?>
<svg width="24px" height="24px" viewBox="0 0 24 24" version="1.1" xmlns="http://www.w3.org/2000/svg" xmlns:xlink="http://www.w3.org/1999/xlink">
    <title>nintendo_switch_fill</title>
    <g id="Icon" stroke="none" stroke-width="1" fill="none" fill-rule="evenodd">
        <g id="Logo" transform="translate(-480.000000, -240.000000)">
            <g id="nintendo_switch_fill" transform="translate(480.000000, 240.000000)">
                <path d="M24,0 L24,24 L0,24 L0,0 L24,0 Z M12.5935,23.2578 L12.5819,23.2595 L12.5109,23.295 L12.4919,23.2987 L12.4767,23.295 L12.4057,23.2595 C12.3958,23.2564 12.387,23.259 12.3821,23.2649 L12.378,23.2758 L12.3609,23.7031 L12.3659,23.7235 L12.3769,23.7357 L12.4805,23.8097 L12.4953,23.8136 L12.5071,23.8097 L12.6107,23.7357 L12.6233,23.7197 L12.6267,23.7031 L12.6096,23.2758 C12.6076,23.2657 12.601,23.2593 12.5935,23.2578 Z M12.8584,23.1453 L12.8445,23.1473 L12.6598,23.2397 L12.6499,23.2499 L12.6472,23.2611 L12.6651,23.6906 L12.6699,23.7034 L12.6784,23.7105 L12.8793,23.8032 C12.8914,23.8069 12.9022,23.803 12.9078,23.7952 L12.9118,23.7812 L12.8777,23.1665 C12.8753,23.1546 12.8674,23.147 12.8584,23.1453 Z M12.143,23.1473 C12.1332,23.1424 12.1222,23.1453 12.1156,23.1526 L12.1099,23.1665 L12.0758,23.7812 C12.0751,23.7927 12.0828,23.8019 12.0926,23.8046 L12.1083,23.8032 L12.3092,23.7105 L12.3186,23.7024 L12.3225,23.6906 L12.3404,23.2611 L12.3372,23.2485 L12.3278,23.2397 L12.143,23.1473 Z" id="MingCute" fill-rule="nonzero"></path>
                <path d="M10,3 C10.5523,3 11,3.44772 11,4 L11,20 C11,20.5523 10.5523,21 10,21 L6,21 C3.79086,21 2,19.2091 2,17 L2,7 C2,4.79086 3.79086,3 6,3 L10,3 Z M18,3 C20.2091,3 22,4.79086 22,7 L22,17 C22,19.2091 20.2091,21 18,21 L14,21 C13.4477,21 13,20.5523 13,20 L13,4 C13,3.44772 13.4477,3 14,3 L18,3 Z M17.5,14 C16.6716,14 16,14.6716 16,15.5 C16,16.3284 16.6716,17 17.5,17 C18.3284,17 19,16.3284 19,15.5 C19,14.6716 18.3284,14 17.5,14 Z M6.5,7 C5.67157,7 5,7.67157 5,8.5 C5,9.32843 5.67157,10 6.5,10 C7.32843,10 8,9.32843 8,8.5 C8,7.67157 7.32843,7 6.5,7 Z" id="形状" fill="#09244B"></path>
            </g>
        </g>
    </g>
</svg>

<svg xmlns="http://www.w3.org/2000/svg" width="24" height="24"><g fill="none" fill-rule="evenodd"><path d="M24 0v24H0V0h24ZM12.594 23.258l-.012.002-.071.035-.02.004-.014-.004-.071-.036c-.01-.003-.019 0-.024.006l-.004.01-.017.428.005.02.01.013.104.074.015.004.012-.004.104-.074.012-.016.004-.017-.017-.427c-.002-.01-.009-.017-.016-.018Zm.264-.113-.014.002-.184.093-.01.01-.003.011.018.43.005.012.008.008.201.092c.012.004.023 0 .029-.008l.004-.014-.034-.614c-.003-.012-.01-.02-.02-.022Zm-.715.002a.023.023 0 0 0-.027.006l-.006.014-.034.614c0 .012.007.02.017.024l.015-.002.201-.093.01-.008.003-.011.018-.43-.003-.012-.01-.01-.184-.092Z"/><path fill="#09244B" d="M10 3a1 1 0 0 1 1 1v16a1 1 0 0 1-1 1H6a4 4 0 0 1-4-4V7a4 4 0 0 1 4-4h4Zm8 0a4 4 0 0 1 4 4v10a4 4 0 0 1-4 4h-4a1 1 0 0 1-1-1V4a1 1 0 0 1 1-1h4Zm-.5 11a1.5 1.5 0 1 0 0 3 1.5 1.5 0 0 0 0-3Zm-11-7a1.5 1.5 0 1 0 0 3 1.5 1.5 0 0 0 0-3Z"/></g></svg>
